X: 1
T: Gigue Acadien
R: jig
Z: 2008 John Chambers <jc:trillian.mit.edu>
F: http://mustrad.udenap.org/partitions/TQ080.jpg
M: 6/8
L: 1/8
K: D
BA \
| DFA dcd | efg B2B | Ace Ace | dcB ABA \
| DFA dcd | efg B2B | Ace Ace | d4 :|
|: zf \
| a2f dcd | efg B2B | Ace Ace | dcB A2f \
| a2f dcd | efg B2B | Ace Ace | d4 :|
